images/twit.svg

<svg width="17" height="14" viewBox="0 0 17 14" fill="none" xmlns="http://www.w3.org/2000/svg">
<path d="M14.417 3.74052C14.427 3.88264 14.427 4.0248 14.427 4.16692C14.427 8.50192 11.1498 13.4969 5.15986 13.4969C3.31448 13.4969 1.60022 12.9588 0.158203 12.0248C0.420396 12.0552 0.67247 12.0654 0.944752 12.0654C2.46741 12.0654 3.8691 11.5476 4.98843 10.6644C3.5565 10.6339 2.3565 9.68977 1.94305 8.39027C2.14475 8.4207 2.34642 8.44102 2.5582 8.44102C2.85063 8.44102 3.14308 8.40039 3.41533 8.32936C1.92291 8.02477 0.803551 6.70498 0.803551 5.11108V5.07048C1.23715 5.31414 1.74139 5.46642 2.2758 5.4867C1.39849 4.89786 0.823727 3.8928 0.823727 2.75573C0.823727 2.14661 0.985041 1.58823 1.26741 1.10092C2.87077 3.09077 5.28086 4.39023 7.98334 4.53239C7.93293 4.28873 7.90266 4.03495 7.90266 3.78114C7.90266 1.97402 9.35477 0.501953 11.1598 0.501953C12.0976 0.501953 12.9446 0.897891 13.5396 1.53748C14.2757 1.39536 14.9816 1.12123 15.6068 0.745609C15.3648 1.50705 14.8505 2.14664 14.1749 2.5527C14.8304 2.48167 15.4657 2.29889 16.0505 2.04511C15.6069 2.69483 15.0522 3.27348 14.417 3.74052Z" fill="black"/>
</svg>

<svg width="17" height="14" fill="none" xmlns="http://www.w3.org/2000/svg"><path d="M14.417 3.74c.01.143.01.285.01.427 0 4.335-3.277 9.33-9.267 9.33a9.16 9.16 0 01-5.002-1.472c.262.03.514.04.787.04a6.496 6.496 0 004.043-1.4A3.266 3.266 0 011.943 8.39c.202.03.403.051.615.051.293 0 .585-.04.857-.112A3.274 3.274 0 01.804 5.111v-.04c.433.243.937.395 1.472.416A3.283 3.283 0 01.824 2.756c0-.61.161-1.168.443-1.655a9.238 9.238 0 006.716 3.431 3.726 3.726 0 01-.08-.75c0-1.808 1.452-3.28 3.257-3.28a3.24 3.24 0 012.38 1.035 6.386 6.386 0 002.067-.791 3.266 3.266 0 01-1.432 1.807 6.494 6.494 0 001.875-.508 7.029 7.029 0 01-1.633 1.696z" fill="#000"/></svg>
